X:1
T: Lady Shaftsbury
C:Nathaniel Gow
R:Strathspey
Q: 128
K:Eb
M:4/4
L:1/16
|:G2F2|E4 B,4 G,4 B,4|E6 F2 G4 c4|B4 G4 F6 E2|D4 F4 F4 G2F2|
E4 B,4 G,4 B,4|E6 F2 G4 c4|B4 G4 F6 G2|E12:|
B4|e4 d4 c4 B4|e8 E6 c2|B4 G4 F6 E2|D4 F4 F4 B4|e4 d4 c4 B4|e8 E6 c2|B4 G4 F6 G2|E12 B4|
e4 d4 c4 B4|B2A2 B2c2 d2c2 d2e2|f4 F4 F4 F4|E6 F2 G4 c4|B6 c2 B4 G4|F4 E4 F4 G4|E2F2 G2F2 E4 C4|E12||
